X: 18
T: The Hundred Pipers
I: Hundred Pipers, The	J-6	A	jig
M: 6/8
R: jig
K: A
A/B/| "A"c2E EFE| "D"F2A A2f| "A"e2c cBA| "E"B2B B2A/B/|
      "A"c2E EFE| "D"F2A A2f| "A"e2c "E"BcB| "A"A2A A2 :|
|:c/d/| "A"e2e ece| "D"f2a a2f| "A"e2c cBA| "E"B2B B2c/d/|
      "A"efe ece| "D"f2a a2f| "A"e2c "E"BcB| "A"A2A A2 :|
%%text Roaring Jelly  J-6

